symbols/web/help_center/materialsymbolssharp/help_center_wght300fill1_24px.svg

<svg xmlns="http://www.w3.org/2000/svg" height="24" width="24"><path d="M3.5 20.5v-17h17v17Zm8.525-2.925q.425 0 .725-.3t.3-.725q0-.425-.3-.725t-.725-.3q-.425 0-.725.3t-.3.725q0 .425.3.725t.725.3Zm-.725-3.6h1.425q.025-.775.225-1.188.2-.412.825-1.037.8-.8 1.138-1.35.337-.55.337-1.275 0-1.25-.85-2.013-.85-.762-2.2-.762-1.225 0-2.087.625Q9.25 7.6 8.9 8.6l1.275.525q.2-.65.7-1.05.5-.4 1.25-.4.8 0 1.263.438.462.437.462 1.062 0 .475-.275.912-.275.438-.85.963-.825.725-1.125 1.362-.3.638-.3 1.563Z"/></svg>

<svg xmlns="http://www.w3.org/2000/svg" height="24" width="24"><path d="M3.5 20.5V3.5H20.5V20.5ZM12.025 17.575Q12.45 17.575 12.75 17.275Q13.05 16.975 13.05 16.55Q13.05 16.125 12.75 15.825Q12.45 15.525 12.025 15.525Q11.6 15.525 11.3 15.825Q11 16.125 11 16.55Q11 16.975 11.3 17.275Q11.6 17.575 12.025 17.575ZM11.3 13.975H12.725Q12.75 13.2 12.95 12.787Q13.15 12.375 13.775 11.75Q14.575 10.95 14.913 10.4Q15.25 9.85 15.25 9.125Q15.25 7.875 14.4 7.112Q13.55 6.35 12.2 6.35Q10.975 6.35 10.113 6.975Q9.25 7.6 8.9 8.6L10.175 9.125Q10.375 8.475 10.875 8.075Q11.375 7.675 12.125 7.675Q12.925 7.675 13.388 8.113Q13.85 8.55 13.85 9.175Q13.85 9.65 13.575 10.087Q13.3 10.525 12.725 11.05Q11.9 11.775 11.6 12.412Q11.3 13.05 11.3 13.975Z"/></svg>
